src/components/Camino/assets/label-onboarding.svg

<svg fill="none" height="24" viewBox="0 0 24 24" width="24" xmlns="http://www.w3.org/2000/svg" xmlns:xlink="http://www.w3.org/1999/xlink"><linearGradient id="a" gradientUnits="userSpaceOnUse" x1="1.28571" x2="22.5" y1="2.78571" y2="27"><stop offset="0" stop-color="#65aaff"/><stop offset="1" stop-color="#5d21d4"/></linearGradient><linearGradient id="b" gradientUnits="userSpaceOnUse" x1="18.3985" x2="18.3985" y1="22.042" y2="3.81225"><stop offset="0" stop-opacity="0"/><stop offset="1" stop-color="#48d8f4"/></linearGradient><clipPath id="c"><path d="m0 0h24v24h-24z"/></clipPath><g clip-path="url(#c)"><rect fill="url(#a)" height="24" rx="4" width="24"/><path d="m16.9752 9.48748c-.0434-.09388-.1368-.15413-.2398-.15413h-3.1368l3.0958-4.92401c.0516-.08212.0547-.18612.0082-.27118-.0466-.08535-.1356-.13816-.2319-.13816h-4.2353c-.1003 0-.1919.05706-.2369.14747l-3.97059 8.00003c-.04104.0824-.03654.1805.01163.2592.04846.0786.13342.1266.22527.1266h2.72199l-2.96605 7.0966c-.05057.1213-.00556.2621.10587.3309.04287.0264.09052.0392.13791.0392.07597 0 .15089-.0328.20278-.0947l8.47059-10.13332c.0664-.07944.0807-.19038.0373-.2845z" fill="#fff"/><g clip-rule="evenodd" fill-rule="evenodd"><path d="m26.6225 2.03902v4.53673c-.711-1.51738-2.0936-2.95054-4.1478-4.14179-.4866-.28274-.9973-.5426-1.5269-.78223v-4.53796c.5296.23944 1.0403.49949 1.5269.78223 2.0542 1.192481 3.4368 2.62573 4.1478 4.14302z" fill="#51ffff" opacity=".01584"/><path d="m18.3985 4.91699c-.1599 0-.2898.13045-.2898.29134v16.88397h.5796v-16.88397c0-.16089-.1298-.29134-.2898-.29134z" fill="url(#b)" opacity=".0036"/></g></g></svg>

<svg width="24" height="24" viewBox="0 0 24 24" fill="none" xmlns="http://www.w3.org/2000/svg">
<g clip-path="url(#clip0)">
<rect width="24" height="24" rx="4" fill="url(#paint0_linear)"/>
<path d="M16.9752 9.48748C16.9318 9.3936 16.8384 9.33335 16.7354 9.33335H13.5986L16.6944 4.40934C16.746 4.32722 16.7491 4.22322 16.7026 4.13816C16.656 4.05281 16.567 4 16.4707 4H12.2354C12.1351 4 12.0435 4.05706 11.9985 4.14747L8.02791 12.1475C7.98687 12.2299 7.99137 12.328 8.03954 12.4067C8.088 12.4853 8.17296 12.5333 8.26481 12.5333H10.9868L8.02075 19.6299C7.97018 19.7512 8.01519 19.892 8.12662 19.9608C8.16949 19.9872 8.21714 20 8.26453 20C8.3405 20 8.41542 19.9672 8.46731 19.9053L16.9379 9.77198C17.0043 9.69254 17.0186 9.5816 16.9752 9.48748Z" fill="white"/>
<path opacity="0.0158398" fill-rule="evenodd" clip-rule="evenodd" d="M26.6225 2.03902V6.57575C25.9115 5.05837 24.5289 3.62521 22.4747 2.43396C21.9881 2.15122 21.4774 1.89136 20.9478 1.65173V-2.88623C21.4774 -2.64679 21.9881 -2.38674 22.4747 -2.104C24.5289 -0.911519 25.9115 0.52173 26.6225 2.03902Z" fill="#51FFFF"/>
<g opacity="0.06">
<path opacity="0.06" fill-rule="evenodd" clip-rule="evenodd" d="M18.3985 4.91699C18.2386 4.91699 18.1087 5.04744 18.1087 5.20833V22.0923H18.6883V5.20833C18.6883 5.04744 18.5585 4.91699 18.3985 4.91699Z" fill="url(#paint1_linear)"/>
</g>
</g>
<defs>
<linearGradient id="paint0_linear" x1="1.28571" y1="2.78571" x2="22.5" y2="27" gradientUnits="userSpaceOnUse">
<stop stop-color="#65AAFF"/>
<stop offset="1" stop-color="#5D21D4"/>
</linearGradient>
<linearGradient id="paint1_linear" x1="18.3985" y1="22.042" x2="18.3985" y2="3.81225" gradientUnits="userSpaceOnUse">
<stop stop-opacity="0"/>
<stop offset="1" stop-color="#48D8F4"/>
</linearGradient>
<clipPath id="clip0">
<rect width="24" height="24" fill="white"/>
</clipPath>
</defs>
</svg>
